lib/brands/logos/sublime-text.svg

<svg xmlns="http://www.w3.org/2000/svg" fill="none" aria-hidden="true" viewBox="0 0 302 39"><g id="Sublime Text"><g id="Group"><path id="Vector" fill="black" d="M289.482 7.43305V12.6256C289.482 12.8855 289.592 13.0148 289.813 13.0148H295.589V16.2822H289.482V27.115C289.482 28.3601 289.69 29.2351 290.104 29.7409C290.519 30.2466 291.271 30.4995 292.361 30.4995C293.372 30.4995 294.526 30.2724 295.822 29.8187L296.737 32.6968C294.714 33.6304 292.749 34.0976 290.843 34.0976C288.769 34.0976 287.261 33.6304 286.321 32.6968C285.381 31.7638 284.912 30.3052 284.912 28.3208V16.6908C284.912 16.4315 284.775 16.3568 284.585 16.2384C283.934 15.8305 281.722 15.7616 281.722 15.7616V12.9415C283.213 12.76 284.328 12.1764 285.067 11.1913C285.806 10.2056 286.312 9.30029 286.584 7.43305H289.482ZM62.4897 4.26285C65.122 4.26285 67.6828 4.74929 70.1723 5.72151V12.8984L66.7492 12.5869L66.1849 9.28099C66.1071 8.87884 65.9777 8.62597 65.7963 8.52238C65.0827 8.0945 63.9097 7.88023 62.2761 7.88023C60.4996 7.88023 59.1477 8.24635 58.2205 8.97922C57.294 9.71209 56.8301 10.7261 56.8301 12.0227C56.8301 12.6063 56.9504 13.1377 57.1897 13.6177C57.4297 14.0977 57.6955 14.4831 57.9876 14.7753C58.2791 15.0667 58.7295 15.3582 59.3388 15.6503C59.9481 15.9418 60.4635 16.1593 60.885 16.3015C61.3064 16.4443 61.919 16.6386 62.7233 16.8851C63.7862 17.2094 64.5905 17.4687 65.1348 17.663C65.6792 17.8573 66.396 18.1945 67.2839 18.6745C68.1718 19.1545 68.8429 19.6596 69.2966 20.1917C69.7508 20.7232 70.1556 21.4393 70.5127 22.3408C70.8691 23.2416 71.0474 24.2627 71.0474 25.4035C71.0474 28.3729 70.0455 30.5645 68.0425 31.9775C66.0389 33.3911 63.4426 34.0976 60.2531 34.0976C58.5808 34.0976 56.9111 33.9322 55.2453 33.6015C53.5788 33.2708 52.3505 32.9175 51.5597 32.5417V25.5206H54.9628L55.7407 29.1187C55.7928 29.378 55.861 29.553 55.9453 29.6437C56.0296 29.7344 56.1885 29.8252 56.4215 29.9159C57.7958 30.3052 59.1123 30.4995 60.3696 30.4995H60.4867C64.4412 30.4995 66.4185 29.0016 66.4185 26.0064C66.4185 25.242 66.2724 24.5773 65.981 24.013C65.6888 23.4494 65.232 22.9823 64.6098 22.6129C63.9876 22.2436 63.404 21.9515 62.859 21.7379C62.3147 21.5236 61.5625 21.2868 60.6031 21.0275C57.9972 20.2631 56.2207 19.5688 55.2742 18.9466C53.2255 17.598 52.2012 15.5171 52.2012 12.7034C52.2012 9.91606 53.1509 7.81203 55.0503 6.39262C56.9504 4.97256 59.4295 4.26285 62.4897 4.26285ZM246.757 12.6256C252.384 12.6256 255.198 15.8221 255.198 22.214C255.198 23.0048 255.159 23.7762 255.081 24.5284H242.226C242.329 26.4735 242.806 27.9418 243.655 28.934C244.504 29.9255 245.856 30.4216 247.71 30.4216C249.383 30.4216 251.334 29.9545 253.564 29.0215L254.848 32.211C252.411 33.4554 249.863 34.0847 247.205 34.0976C240.643 34.0847 237.363 30.4538 237.363 23.2062C237.363 19.7574 238.238 17.1315 239.989 15.3293C241.739 13.527 243.996 12.6256 246.757 12.6256ZM189.1 12.6256C194.727 12.6256 197.541 15.8221 197.541 22.214C197.541 23.0048 197.502 23.7762 197.424 24.5284H184.569C184.672 26.4735 185.149 27.9418 185.998 28.934C186.847 29.9255 188.199 30.4216 190.053 30.4216C191.726 30.4216 193.677 29.9545 195.907 29.0215L197.191 32.211C194.753 33.4554 192.206 34.0847 189.548 34.0976C182.987 34.0847 179.706 30.4538 179.706 23.2062C179.706 19.7574 180.582 17.1315 182.332 15.3293C184.082 13.527 186.338 12.6256 189.1 12.6256ZM103.328 3.54349V14.765C105.584 13.3391 107.755 12.6256 109.843 12.6256H109.901C112.235 12.6256 114.086 13.4427 115.454 15.0764C116.822 16.7101 117.506 19.2388 117.506 22.6612C117.506 26.59 116.754 29.4784 115.25 31.3257C113.746 33.1736 111.671 34.0976 109.026 34.0976C106.64 34.0976 104.656 33.3132 103.075 31.7439H102.919L102.686 33.6111H98.271C98.6082 31.7053 98.7767 29.8573 98.7767 28.068V7.68592C98.7767 7.2323 98.6082 6.95305 98.271 6.84945L95.9952 6.09085L96.3845 3.54349H103.328ZM80.1088 13.0148V26.3178C80.1088 27.7572 80.2903 28.8008 80.6532 29.4494C81.0167 30.0973 81.7232 30.4216 82.7733 30.4216C84.6534 30.4216 86.5007 29.4944 88.3165 27.6407V16.9629C88.3165 16.6386 88.2836 16.425 88.2187 16.3214C88.1543 16.2172 87.9729 16.1393 87.6743 16.0879L85.7685 15.6014L86.1185 13.0148H92.9061V29.9937C92.9061 30.4737 93.0746 30.7395 93.4118 30.791L95.4927 31.0631V33.6111H89.1915L88.8415 31.1802L88.7244 31.141C86.2613 33.1118 83.7783 34.0976 81.276 34.0976C79.1752 34.0976 77.694 33.559 76.8318 32.4832C75.9696 31.4067 75.5385 29.6823 75.5385 27.31V16.9629C75.5385 16.6386 75.5025 16.425 75.4311 16.3214C75.3603 16.2172 75.1821 16.1393 74.8964 16.0879L72.8541 15.6014L73.2241 13.0148H80.1088ZM169.478 12.6256C171.579 12.6256 173.079 13.2091 173.981 14.3763C174.881 15.5429 175.332 17.2287 175.332 19.4331V29.9937C175.332 30.318 175.365 30.5252 175.43 30.6159C175.494 30.7067 175.675 30.7652 175.974 30.791L178.152 31.0631V33.6111H168.038V31.1024L170.12 30.8302C170.519 30.7816 170.726 30.5468 170.742 30.1255L170.742 20.6582C170.742 19.3095 170.577 18.2755 170.246 17.5562C169.915 16.8368 169.244 16.4765 168.233 16.4765C166.613 16.4765 164.985 17.0086 163.352 18.0716C163.455 18.6809 163.507 19.4266 163.507 20.3081V29.9937C163.507 30.318 163.54 30.5252 163.605 30.6159C163.669 30.7067 163.844 30.7652 164.13 30.791L165.977 31.0631V33.6111H156.175V31.1024L158.276 30.8302C158.535 30.8038 158.707 30.7298 158.791 30.6063C158.875 30.4834 158.917 30.2917 158.917 30.0324V20.8724C158.917 20.1589 158.898 19.5888 158.859 19.1609C158.82 18.733 158.729 18.2852 158.586 17.8187C158.444 17.3522 158.191 17.0054 157.828 16.7783C157.465 16.5511 157.005 16.4379 156.447 16.4379C154.878 16.4379 153.232 17.1186 151.507 18.4802V29.9937C151.507 30.318 151.543 30.5252 151.614 30.6159C151.686 30.7067 151.864 30.7652 152.149 30.791L154.094 31.0631V33.6111H144.389V31.1024L146.295 30.791C146.554 30.7652 146.726 30.697 146.81 30.587C146.895 30.477 146.936 30.2788 146.936 29.9937V17.1573C146.936 16.7036 146.761 16.425 146.411 16.3214L144.214 15.5628L144.622 13.0148H150.515L150.827 15.2514L151.002 15.2907C153.335 13.5141 155.604 12.6256 157.809 12.6256C160.064 12.6256 161.647 13.4234 162.554 15.0178C165.018 13.4234 167.326 12.6256 169.478 12.6256ZM126.468 3.54349V29.9937C126.468 30.318 126.504 30.5252 126.576 30.6159C126.646 30.7067 126.825 30.7652 127.11 30.791L129.347 31.0631V33.6111H118.981V31.1024L121.256 30.791C121.516 30.7652 121.687 30.697 121.772 30.587C121.856 30.477 121.898 30.2788 121.898 29.9937V7.68592C121.898 7.2323 121.723 6.95305 121.373 6.84945L119.097 6.09085L119.506 3.54349H126.468ZM139.248 13.0148V29.9937C139.248 30.318 139.283 30.5252 139.355 30.6159C139.426 30.7067 139.605 30.7652 139.89 30.791L142.243 31.0631V33.6111H131.643V31.1024L134.036 30.791C134.295 30.7652 134.467 30.697 134.551 30.587C134.635 30.477 134.678 30.2788 134.678 29.9937V17.1573C134.678 16.7036 134.502 16.425 134.152 16.3214L131.955 15.5628L132.363 13.0148H139.248ZM237.966 4.76859V12.1005H234.66L234.018 8.63884C233.967 8.34093 233.752 8.19165 233.377 8.19165H228.008V29.9545C228.008 30.253 228.041 30.4441 228.106 30.5284C228.171 30.6127 228.352 30.6681 228.651 30.6938L233.026 31.0245V33.6111H218.595V31.0245L222.699 30.7524C222.958 30.726 223.13 30.6648 223.214 30.5677C223.298 30.4699 223.341 30.2659 223.341 29.9545V8.19165H218.012C217.636 8.19165 217.422 8.34093 217.37 8.63884L216.728 12.1005H213.383V4.76859H237.966ZM267.708 13.0148V15.6014L265.472 15.9322L269.167 20.6582L273.193 15.9322L270.762 15.6014L271.171 13.0148H279.339V15.6014L277.588 16.01C277.212 16.1393 276.849 16.3922 276.499 16.7686L271.365 22.8169L277.102 29.9937C277.478 30.4216 277.835 30.6552 278.172 30.6938L280.175 31.0631V33.6111H269.964V31.0631L272.201 30.6938L268.33 25.6371L264.227 30.6938L266.658 31.0631V33.6111H257.712V31.1024L259.54 30.7524C259.993 30.6745 260.389 30.4345 260.726 30.0324L266.191 23.4976L260.726 16.7294C260.428 16.3793 260.111 16.1529 259.773 16.0486L258.1 15.6014L258.509 13.0148H267.708ZM108.579 16.36C106.958 16.36 105.221 17.0151 103.366 18.3244V28.1072C104.987 29.6244 106.634 30.3824 108.307 30.3824C111.275 30.3824 112.76 27.9 112.76 22.934C112.76 20.8075 112.394 19.1802 111.661 18.0523C110.929 16.9243 109.901 16.36 108.579 16.36ZM189.022 16.0879C187.803 16.0879 186.789 16.5125 185.979 17.3619C185.169 18.2112 184.711 19.4981 184.608 21.2225H192.97C192.97 17.7994 191.654 16.0879 189.022 16.0879ZM246.68 16.0879C245.461 16.0879 244.446 16.5125 243.635 17.3619C242.825 18.2112 242.368 19.4981 242.264 21.2225H250.628C250.628 17.7994 249.311 16.0879 246.68 16.0879ZM136.466 3.21277C137.4 3.21277 138.133 3.46564 138.664 3.97138C139.196 4.47711 139.462 5.19647 139.462 6.13009C139.462 7.08945 139.196 7.82554 138.664 8.33771C138.133 8.84924 137.4 9.10533 136.466 9.10533C135.507 9.10533 134.768 8.84924 134.25 8.33771C133.731 7.82554 133.471 7.08945 133.471 6.13009C133.471 5.19647 133.731 4.47711 134.25 3.97138C134.768 3.46564 135.507 3.21277 136.466 3.21277Z"/><g id="Group_2"><path id="Vector_2" fill="url(#paint0_linear_93_15988)" d="M28.4237 20.3856C28.4237 20.033 28.1632 19.8297 27.8434 19.9307L5.84374 26.9068C5.52331 27.0085 5.26337 27.3771 5.26337 27.7291V34.859C5.26337 35.2116 5.52331 35.4156 5.84374 35.3139L27.8434 28.3384C28.1632 28.2368 28.4237 27.8681 28.4237 27.5155V20.3856Z"/><path id="Vector_3" fill="#FF9800" d="M5.26337 20.1586C5.26337 20.5112 5.52331 20.8798 5.84374 20.9815L27.8466 27.9582C28.167 28.0599 28.427 27.8559 28.427 27.504V20.3735C28.427 20.0215 28.167 19.6528 27.8466 19.5512L5.84374 12.5744C5.52331 12.4727 5.26337 12.6761 5.26337 13.0287V20.1586Z"/><path id="Vector_4" fill="#FF9800" d="M28.4237 5.7347C28.4237 5.3821 28.1632 5.17813 27.8434 5.2798L5.84374 12.2553C5.52331 12.3569 5.26337 12.7256 5.26337 13.0782V20.2081C5.26337 20.5607 5.52331 20.764 5.84374 20.663L27.8434 13.6869C28.1632 13.5852 28.4237 13.2165 28.4237 12.8646V5.7347Z"/></g></g></g><defs><linearGradient id="paint0_linear_93_15988" x1="18.0287" x2="19.0001" y1="28.9621" y2="25.7141" gradientUnits="userSpaceOnUse"><stop stop-color="#FF9700"/><stop offset="0.53" stop-color="#F48E00"/><stop offset="1" stop-color="#D06F00"/></linearGradient></defs></svg>

<svg xmlns="http://www.w3.org/2000/svg" fill="none" aria-hidden="true" viewBox="0 0 302 39"><path fill="#000" d="M289.482 7.433v5.193c0 .26.11.389.331.389h5.776v3.267h-6.107v10.833c0 1.245.208 2.12.622 2.626.415.506 1.167.759 2.257.759 1.011 0 2.165-.228 3.461-.681l.915 2.878c-2.023.933-3.988 1.4-5.893 1.4-2.075 0-3.582-.467-4.522-1.4-.941-.933-1.41-2.392-1.41-4.376V16.69c0-.26-.137-.334-.327-.453-.651-.407-2.863-.476-2.863-.476v-2.82c1.491-.182 2.606-.766 3.345-1.75.739-.986 1.245-1.892 1.517-3.759h2.898ZM62.49 4.263c2.632 0 5.193.486 7.682 1.459v7.176l-3.423-.311-.564-3.306c-.078-.402-.207-.655-.389-.759-.713-.428-1.886-.642-3.52-.642-1.776 0-3.128.366-4.055 1.1-.927.732-1.39 1.746-1.39 3.043 0 .583.12 1.115.359 1.595.24.48.506.865.798 1.157.291.292.742.583 1.35.875.61.292 1.126.51 1.547.652.422.142 1.034.337 1.838.583 1.063.324 1.868.584 2.412.778.544.194 1.261.532 2.149 1.011.888.48 1.56.986 2.013 1.518.454.531.859 1.247 1.216 2.149.356.9.534 1.922.534 3.063 0 2.969-1.001 5.16-3.004 6.573-2.004 1.414-4.6 2.12-7.79 2.12a25.72 25.72 0 0 1-5.008-.495c-1.666-.331-2.894-.684-3.685-1.06V25.52h3.403l.778 3.598c.052.259.12.434.205.525.084.09.243.181.476.272 1.374.39 2.69.584 3.948.584h.117c3.954 0 5.932-1.498 5.932-4.494 0-.764-.146-1.429-.438-1.993-.292-.564-.749-1.03-1.371-1.4a12.175 12.175 0 0 0-1.75-.875c-.545-.214-1.297-.451-2.257-.71-2.606-.765-4.382-1.46-5.329-2.081-2.048-1.349-3.073-3.43-3.073-6.244 0-2.787.95-4.891 2.85-6.31 1.9-1.42 4.379-2.13 7.439-2.13Zm184.267 8.363c5.627 0 8.441 3.196 8.441 9.588 0 .79-.039 1.562-.116 2.314h-12.856c.103 1.946.58 3.414 1.43 4.406.848.991 2.2 1.488 4.054 1.488 1.673 0 3.624-.468 5.854-1.4l1.284 3.189c-2.437 1.244-4.985 1.874-7.643 1.887-6.561-.013-9.842-3.644-9.842-10.892 0-3.449.875-6.075 2.626-7.877 1.75-1.802 4.007-2.703 6.768-2.703Zm-57.657 0c5.628 0 8.441 3.196 8.441 9.588 0 .79-.039 1.562-.117 2.314h-12.855c.104 1.946.58 3.414 1.429 4.406.849.991 2.201 1.488 4.055 1.488 1.673 0 3.624-.468 5.855-1.4l1.283 3.189c-2.438 1.244-4.985 1.874-7.643 1.887-6.561-.013-9.841-3.644-9.841-10.892 0-3.449.875-6.075 2.625-7.877 1.751-1.802 4.006-2.703 6.768-2.703Zm-85.772-9.083v11.222c2.256-1.426 4.427-2.14 6.515-2.14h.058c2.334 0 4.185.818 5.553 2.451 1.368 1.634 2.052 4.163 2.052 7.585 0 3.929-.752 6.817-2.256 8.665-1.504 1.848-3.579 2.772-6.224 2.772-2.386 0-4.369-.785-5.951-2.354h-.156l-.233 1.867h-4.415c.337-1.906.506-3.754.506-5.543V7.686c0-.454-.169-.733-.506-.837l-2.276-.758.39-2.548h6.943Zm-23.22 9.472v13.303c0 1.44.182 2.483.545 3.131.364.648 1.07.973 2.12.973 1.88 0 3.728-.928 5.544-2.781V16.963c0-.324-.033-.538-.098-.642-.065-.104-.246-.182-.545-.233L85.77 15.6l.35-2.586h6.787v16.979c0 .48.169.745.506.797l2.08.272v2.548h-6.3l-.35-2.43-.117-.04c-2.463 1.97-4.947 2.957-7.449 2.957-2.1 0-3.582-.539-4.444-1.615-.862-1.076-1.293-2.8-1.293-5.173V16.963c0-.324-.036-.538-.108-.642-.07-.104-.249-.182-.534-.233l-2.043-.487.37-2.586h6.885Zm89.37-.39c2.101 0 3.601.584 4.503 1.751.901 1.167 1.351 2.853 1.351 5.057v10.56c0 .325.033.532.098.623.064.09.245.15.544.175l2.178.272v2.548h-10.113v-2.509l2.081-.272c.399-.048.607-.283.622-.704v-9.468c0-1.349-.165-2.383-.496-3.102-.331-.72-1.002-1.08-2.012-1.08-1.621 0-3.249.533-4.882 1.596.103.609.156 1.355.156 2.236v9.686c0 .324.032.531.097.622.064.09.239.15.525.175l1.847.272v2.548h-9.802v-2.509l2.101-.272c.259-.026.431-.1.515-.224.084-.123.126-.314.126-.574v-9.16c0-.713-.019-1.283-.058-1.711a6.713 6.713 0 0 0-.272-1.342c-.143-.467-.396-.814-.759-1.04-.363-.228-.823-.341-1.381-.341-1.569 0-3.215.68-4.939 2.042v11.514c0 .324.035.531.106.622.072.09.25.15.535.175l1.945.272v2.548h-9.705v-2.509l1.906-.311c.259-.026.431-.094.515-.204.085-.11.127-.308.127-.593V17.157c0-.453-.175-.732-.525-.836l-2.198-.758.408-2.548h5.893l.312 2.236.175.04c2.333-1.777 4.602-2.665 6.807-2.665 2.256 0 3.838.797 4.745 2.392 2.464-1.595 4.772-2.392 6.924-2.392Zm-43.01-9.082v26.45c0 .325.036.532.108.623.071.09.249.15.534.175l2.237.272v2.548h-10.366v-2.509l2.275-.311c.26-.026.432-.094.516-.204.084-.11.126-.308.126-.593V7.686c0-.454-.175-.733-.525-.837l-2.276-.758.409-2.548h6.962Zm12.78 9.472v16.979c0 .324.036.531.107.622.071.09.25.15.535.175l2.353.272v2.548h-10.6v-2.509l2.393-.311c.259-.026.431-.094.515-.204.084-.11.127-.308.127-.593V17.157c0-.453-.176-.732-.526-.836l-2.197-.758.408-2.548h6.885Zm98.718-8.246V12.1h-3.306l-.642-3.462c-.051-.298-.266-.447-.641-.447h-5.369v21.762c0 .299.033.49.098.574.065.085.246.14.545.166l4.376.33v2.587h-14.432v-2.586l4.104-.273c.259-.026.431-.087.515-.184.085-.098.127-.302.127-.614V8.192h-5.329c-.376 0-.59.149-.642.447l-.642 3.462h-3.345V4.769h24.583Zm29.742 8.246V15.6l-2.236.331 3.695 4.726 4.026-4.726-2.431-.33.409-2.587h8.168V15.6l-1.751.409c-.376.13-.738.382-1.088.759l-5.135 6.048 5.737 7.177c.376.428.733.661 1.07.7l2.003.37v2.547h-10.211v-2.548l2.237-.37-3.87-5.056-4.104 5.057 2.431.37v2.547h-8.946v-2.509l1.828-.35c.454-.078.849-.317 1.186-.72l5.465-6.534-5.465-6.769c-.298-.35-.615-.576-.953-.68l-1.672-.448.408-2.586h9.199ZM108.579 16.36c-1.621 0-3.358.655-5.213 1.964v9.783c1.621 1.517 3.268 2.275 4.941 2.275 2.969 0 4.454-2.482 4.454-7.448 0-2.127-.367-3.754-1.099-4.882-.733-1.128-1.761-1.692-3.083-1.692Zm80.443-.272c-1.218 0-2.233.424-3.043 1.274-.81.85-1.268 2.136-1.371 3.86h8.362c0-3.423-1.315-5.134-3.948-5.134Zm57.658 0c-1.219 0-2.234.424-3.044 1.274-.811.85-1.267 2.136-1.372 3.86h8.364c0-3.423-1.317-5.134-3.948-5.134ZM136.467 3.213c.933 0 1.666.253 2.198.758.531.506.797 1.225.797 2.16 0 .958-.266 1.695-.797 2.207-.532.511-1.265.767-2.198.767-.96 0-1.698-.256-2.217-.767-.519-.512-.779-1.249-.779-2.208 0-.934.26-1.653.779-2.159.519-.505 1.257-.758 2.217-.758Z"/><path fill="url(#a)" d="M28.424 20.386c0-.353-.26-.556-.58-.455l-22 6.976c-.32.102-.58.47-.58.822v7.13c0 .353.26.557.58.455l22-6.976c.32-.101.58-.47.58-.823v-7.13Z"/><path fill="#FF9800" d="M5.263 20.159c0 .352.26.72.58.823l22.004 6.976c.32.102.58-.102.58-.454v-7.13c0-.352-.26-.721-.58-.823L5.844 12.575c-.32-.102-.58.101-.58.454v7.13Z"/><path fill="#FF9800" d="M28.424 5.735c0-.353-.26-.557-.58-.455l-22 6.975c-.32.102-.58.47-.58.823v7.13c0 .353.26.556.58.455l22-6.976c.32-.102.58-.47.58-.822v-7.13Z"/><defs><linearGradient id="a" x1="18.029" x2="19" y1="28.962" y2="25.714" gradientUnits="userSpaceOnUse"><stop stop-color="#FF9700"/><stop offset=".53" stop-color="#F48E00"/><stop offset="1" stop-color="#D06F00"/></linearGradient></defs></svg>
